app/[lang]/(home)/(new-home)/assets/stacks-appicons/django.svg

<svg width="16" height="16" viewBox="0 0 16 16" fill="none" xmlns="http://www.w3.org/2000/svg">
<path d="M7.5259 1.33337H9.70606V11.4251C8.58766 11.6374 7.76654 11.7223 6.87464 11.7223C4.21304 11.7223 2.82568 10.5191 2.82568 8.2114C2.82568 5.98868 4.29811 4.54479 6.57726 4.54479C6.93118 4.54479 7.20019 4.57305 7.52579 4.65796L7.5259 1.33337ZM7.5259 6.41311C7.27107 6.32825 7.0587 6.29993 6.78974 6.29993C5.68547 6.29993 5.0484 6.97951 5.0484 8.16863C5.0484 9.32959 5.6572 9.9666 6.77555 9.9666C7.01608 9.9666 7.21443 9.95247 7.52584 9.91007L7.5259 6.41311Z" fill="#43A047"/>
<path d="M13.1744 4.70029V9.75432C13.1744 11.4957 13.047 12.3309 12.6648 13.053C12.3108 13.7468 11.8436 14.1855 10.881 14.667L8.85645 13.7043C9.81911 13.2513 10.2863 12.855 10.5836 12.246C10.8951 11.6231 10.9943 10.9011 10.9943 9.00408V4.7004L13.1744 4.70029ZM10.9943 1.34509H13.1744V3.58189H10.9943V1.34509Z" fill="#43A047"/>
</svg>

<svg xmlns="http://www.w3.org/2000/svg" fill="none" viewBox="0 0 16 16">
  <path
    fill="#43A047"
    d="M7.53 1.33H9.7v10.1c-1.12.2-1.94.3-2.84.3-2.66 0-4.04-1.21-4.04-3.52C2.83 6 4.3 4.54 6.58 4.54c.35 0 .62.03.95.12V1.33Zm0 5.08a2.17 2.17 0 0 0-.74-.11c-1.1 0-1.74.68-1.74 1.87 0 1.16.6 1.8 1.73 1.8.24 0 .43-.02.75-.06v-3.5Z"
  />
  <path
    fill="#43A047"
    d="M13.17 4.7v5.05c0 1.75-.12 2.58-.5 3.3-.36.7-.83 1.14-1.79 1.62l-2.02-.97c.96-.45 1.43-.84 1.72-1.45.32-.63.41-1.35.41-3.25V4.7h2.18ZM11 1.35h2.18v2.23H11V1.35Z"
  />
</svg>
